X: 755
T: Ferahnâk Sazsemâîsi
C: Leon Hancıyan
O: Turkey
F: http://compmusic.upf.edu/node/140
N: ferahnak--sazsemaisi--aksaksemai----leon_hanciyan
N: makam= ferahnak
N: form= sazsemaisi
N: usul= aksaksemai = 10/8
M: 10/8
L: 1/16
K: C ^f ^c  
Q: 1/4=132
%%MIDI tuningsystem comma53
f4 d2^3/4f4ga g^fe4g2  | f4 e2d4e3dc4d2  | \
w:  1. HANE  |   | 
e4 f2g2 a2g2 f2e4b2  | 
w:   | 
a4 f2g2 f2e2 d2f4z2  | d4 a2ba gfe4^d2 e2f2  | \
w:   |  TESLİM  | 
e4 c2B3cdc dBA4z2  | 
w:   | 
A4 e2d2 =c2B2 A2GA G2A2  | B2G2 F2E3DFG GFF4z2  | 
w:   |   | 
A4 ^G2A4BA BcA4z2  | d4 c2d4ed efd4z2  | \
w:  2. HANE  |   | 
f4 ^e2f4gf gaf4g2  | 
w:   | 
e4 =c'ba2 gffe d2f4z2  | d4 a2ba gfe4^d2 e2f2  | 
w:   |  TESLİM  | 
e4 c2B3cdc dBA4z2  | A4 e2d2 =c2B2 A2GA G2A2  | \
w:   |   | 
B2G2 F2E3DFG GFF4z2  | 
w:   | 
^g4 _b2a4ga bc'd'4b2  | a4 ^g2=f4ef ga_b2 a2g2  | \
w:  3. HANE  |   | 
a^g=fe dcd4_b2 a=ga4^f2  | 
w:   | 
g4 f2e3da3gf4z2  | d4 a2ba gfe4^d2 e2f2  | \
w:   |  TESLİM  | 
e4 c2B3cdc dBA4z2  | 
w:   | 
A4 e2d2 =c2B2 A2GA G2A2  | B2G2 F2E3DFG GFF4z2  | 
w:   |   | 
z12  | F12  | F4G4^G4  | A12  | d12  | d8e2d2  | \
w:  |  4. HANE  |   |   |   |   | 
c8B4  | c12  | c4z8  | E12  | E4F4G4  | B12  | c12  | 
w:   |   |   |   |   |   |   | 
e4B6c2  | d4c6B2  | A12  | A4^G4=G4  | F12  | \
w:   |   |   |   |   | 
F4G4^G4  | A12  | d12  | d8e2d2  | c8B4  | 
w:   |   |   |   |   | 
g12  | g2f2e2d2c2B2  | A4B4c4  | d12  | F4G4A4  | B12  | \
w:   |   |   |   |   |   | 
E8F4  | A2G2F4E4  | 
w:   |   | 
D12  | D4z4^G2A2  | B2A2^G2A2B2A2  | c2B2^A2B2c2B2  | \
w:   |   |   |   | 
d2c2B2c2d2c2  | 
w:   | 
e2d2c2d2e2d2  | f6f2f4  | f4z4c2d2  | e6e2e4  | \
w:   |   |   |   | 
e4z4B2c2  | d6d2d4  | 
w:   |   | 
d4z4A4  | B12  | c12  | d4c6B2  | A4B6G2  | F12  | F12  | \
w:   |   |   |   |   |   |   | 
F4E4F4  | G12  | G12  | G4F4G4  | 
w:   |   |   |   | 
A12  | A4z8  | e8d4  | e2d2c6B2  | B8A4  | B2A2G4F4  | \
w:   |   |   |   |   |   | 
E8F4  | G2A2F2G2E2F2  | 
w:   |   | 
D12  | D4z8  | z20  | d4 a2ba gfe4^d2 e2f2  | \
w:   |   |  |  TESLİM  | 
e4 c2B3cdc dBA4z2  | 
w:   | 
A4 e2d2 =c2B2 A2GA G2A2  | B2G2 F2E3DFG GFF4z2  | 
w:   |   | 
|


